src/resources/assets/chevron-down.svg

<svg xmlns="http://www.w3.org/2000/svg" width="16" height="16"><path d="M 3.144531 5.644531 C 3.339844 5.453125 3.660156 5.453125 3.855469 5.644531 L 8 9.792969 L 12.144531 5.644531 C 12.339844 5.453125 12.660156 5.453125 12.855469 5.644531 C 13.046875 5.839844 13.046875 6.160156 12.855469 6.355469 L 8.355469 10.855469 C 8.160156 11.046875 7.839844 11.046875 7.644531 10.855469 L 3.144531 6.355469 C 2.953125 6.160156 2.953125 5.839844 3.144531 5.644531 Z M 3.144531 5.644531" fill="#ddd"/></svg>

<svg xmlns="http://www.w3.org/2000/svg" width="16" height="16"><path d="M3.145 5.645a.512.512 0 01.71 0L8 9.793l4.145-4.148a.512.512 0 01.71 0 .512.512 0 010 .71l-4.5 4.5a.512.512 0 01-.71 0l-4.5-4.5a.512.512 0 010-.71zm0 0" fill="#ddd"/></svg>
